toonz/sources/toonz/Resources/key.svg

<?xml version="1.0" encoding="utf-8"?>
<!-- Generator: Adobe Illustrator 21.0.2, SVG Export Plug-In . SVG Version: 6.00 Build 0)  -->
<svg version="1.1"
	 id="svg2" inkscape:version="0.91 r13725" sodipodi:docname="key.svg" xmlns:cc="http://creativecommons.org/ns#" xmlns:dc="http://purl.org/dc/elements/1.1/" xmlns:inkscape="http://www.inkscape.org/namespaces/inkscape" xmlns:rdf="http://www.w3.org/1999/02/22-rdf-syntax-ns#" xmlns:sodipodi="http://sodipodi.sourceforge.net/DTD/sodipodi-0.dtd" xmlns:svg="http://www.w3.org/2000/svg"
	 xmlns="http://www.w3.org/2000/svg" xmlns:xlink="http://www.w3.org/1999/xlink" x="0px" y="0px" viewBox="0 0 11 13"
	 style="enable-background:new 0 0 11 13;" xml:space="preserve">
<style type="text/css">
	.st0{fill:none;}
	.st1{fill:#FFFFFF;}
</style>
<rect id="rect4" y="0" class="st0" width="11" height="13"/>
<g id="g6">
	<rect id="rect8" x="1" y="1" class="st1" width="9" height="11"/>
	<path id="path10" inkscape:connector-curvature="0" d="M11,0v13H0V0H11z M1,1v11h9V1H1z"/>
	<path id="path12" inkscape:connector-curvature="0" d="M6,3H4v2h2V3z M8,3v2H7v1H6v2h2v1H6v1h3v1H4V6H3V5H2V3h1V2h4v1H8z"/>
</g>
</svg>

<?xml version="1.0" encoding="UTF-8" standalone="no"?>
<!DOCTYPE svg PUBLIC "-//W3C//DTD SVG 1.1//EN" "http://www.w3.org/Graphics/SVG/1.1/DTD/svg11.dtd">
<svg width="11px" height="13px" version="1.1" xmlns="http://www.w3.org/2000/svg" xmlns:xlink="http://www.w3.org/1999/xlink" xml:space="preserve" xmlns:serif="http://www.serif.com/" style="fill-rule:evenodd;clip-rule:evenodd;stroke-linejoin:round;stroke-miterlimit:2;">
    <rect id="rect4" x="0" y="0" width="11" height="13" style="fill:none;"/>
    <g id="g6">
        <rect id="rect8" x="1" y="1" width="9" height="11" style="fill:white;"/>
        <path id="path10" d="M11,0L11,13L0,13L0,0L11,0ZM1,1L1,12L10,12L10,1L1,1Z" style="fill-rule:nonzero;"/>
        <path id="path12" d="M6,3L4,3L4,5L6,5L6,3ZM8,3L8,5L7,5L7,6L6,6L6,8L8,8L8,9L6,9L6,10L9,10L9,11L4,11L4,6L3,6L3,5L2,5L2,3L3,3L3,2L7,2L7,3L8,3Z" style="fill-rule:nonzero;"/>
    </g>
</svg>
